dist/assets/window-right.svg

<svg width="140" height="212" viewBox="0 0 140 212" version="1.1" xmlns="http://www.w3.org/2000/svg" xmlns:xlink="http://www.w3.org/1999/xlink">
<title>Group</title>
<desc>Created using Figma</desc>
<g id="Canvas" transform="translate(-719 -236)">
<g id="Group">
<g id="Group 3.1">
<g id="Vector">
<use xlink:href="#path0_fill" transform="translate(724.259 250.351)" fill="#E9E3D7"/>
</g>
<g id="Vector">
<use xlink:href="#path1_fill" transform="translate(729.844 255.438)" fill="#F7FCFF"/>
</g>
<g id="Vector">
<use xlink:href="#path2_fill" transform="translate(719 243.084)" fill="#736D91"/>
</g>
<g id="Vector">
<use xlink:href="#path3_fill" transform="translate(723.715 236)" fill="#E9E3D7"/>
</g>
<g id="Vector">
<use xlink:href="#path2_fill" transform="translate(719 438.554)" fill="#BAB7CC"/>
</g>
<g id="Vector">
<use xlink:href="#path4_fill" transform="translate(727.269 253.984)" fill="#B9E6FF"/>
</g>
<g id="Vector">
<use xlink:href="#path5_stroke" transform="translate(734.523 261.977)" fill="#201849"/>
</g>
<g id="Vector">
<use xlink:href="#path5_stroke" transform="translate(734.523 269.971)" fill="#201849"/>
</g>
<g id="Vector">
<use xlink:href="#path5_stroke" transform="translate(734.523 280.144)" fill="#201849"/>
</g>
<g id="Vector">
<use xlink:href="#path5_stroke" transform="translate(734.523 288.864)" fill="#201849"/>
</g>
<g id="Vector">
<use xlink:href="#path6_stroke" transform="translate(727.269 253.984)" fill="#201849"/>
</g>
<g id="Vector">
<use xlink:href="#path7_fill" transform="translate(726 332.826)" fill="#201849"/>
</g>
</g>
<g id="Mask Group">
<mask id="mask0_alpha" mask-type="alpha">
<g id="Vector">
<use xlink:href="#path8_fill" transform="translate(730 258)" fill="#F7FCFF"/>
</g>
</mask>
<g id="Group" mask="url(#mask0_alpha)">
<g id="Group">
<g id="Group">
<g id="Group">
<g id="Vector">
<use xlink:href="#path9_fill" transform="translate(756.674 383.237)" fill="#FFB077"/>
</g>
</g>
</g>
<g id="Group">
<g id="Vector">
<use xlink:href="#path10_fill" transform="translate(787 339)" fill="#003C5D"/>
</g>
<g id="Group">
<g id="Vector">
<use xlink:href="#path11_fill" transform="translate(771.5 345.423)" fill="#FFDDBA"/>
</g>
</g>
</g>
<g id="Group">
<g id="Group">
<g id="Vector">
<use xlink:href="#path12_fill" transform="translate(771.143 342.967)" fill="#003C5D"/>
</g>
</g>
</g>
<g id="Group">
<g id="Group">
<g id="Group">
<g id="Group">
<g id="Group">
<g id="Vector">
<use xlink:href="#path13_fill" transform="translate(773.792 355.405)" fill="#22164C"/>
</g>
</g>
</g>
</g>
<g id="Group">
<g id="Group">
<g id="Group">
<g id="Vector">
<use xlink:href="#path14_fill" transform="translate(780.224 355.632)" fill="#22164C"/>
</g>
</g>
</g>
</g>
</g>
<g id="Group">
<g id="Group">
<g id="Vector">
<use xlink:href="#path15_fill" transform="translate(775.911 355.782)" fill="#22164C"/>
</g>
</g>
</g>
<g id="Group">
<g id="Group">
<g id="Vector">
<use xlink:href="#path16_fill" transform="translate(778.408 360.789)" fill="#22164C"/>
</g>
</g>
</g>
</g>
<g id="Group">
<g id="Group">
<g id="Vector">
<use xlink:href="#path17_fill" transform="translate(777.323 342.137)" fill="#003C5D"/>
</g>
</g>
</g>
<g id="Group">
<g id="Group">
<g id="Vector">
<use xlink:href="#path18_fill" transform="translate(788.7 355.655)" fill="#FFDDBA"/>
</g>
</g>
</g>
<g id="Group">
<g id="Group">
<g id="Group">
<g id="Group">
<g id="Vector">
<use xlink:href="#path19_fill" transform="translate(772 345.204)" fill="#B9E6FF"/>
</g>
</g>
</g>
<g id="Group">
<g id="Group">
<g id="Vector">
<use xlink:href="#path20_fill" transform="translate(778.654 345.28)" fill="#B9E6FF"/>
</g>
</g>
</g>
<g id="Group">
<g id="Group">
<g id="Vector">
<use xlink:href="#path21_fill" transform="matrix(0.00743254 -1 1 0.00743262 772.035 345.378)" fill="#FCA664"/>
</g>
</g>
</g>
</g>
<g id="Group">
<g id="Group">
<g id="Vector">
<use xlink:href="#path22_fill" transform="matrix(0.903199 -0.429202 0.429198 0.903201 785.537 345.225)" fill="#FCA664"/>
</g>
</g>
</g>
</g>
<g id="Group">
<g id="Group">
<g id="Group">
<g id="Vector">
<use xlink:href="#path23_fill" transform="translate(769.165 363.935)" fill="#F1EEE7"/>
</g>
</g>
</g>
<g id="Group">
<g id="Group">
<g id="Vector">
<use xlink:href="#path24_fill" transform="matrix(0.110163 -0.993926 0.993874 0.110637 768.968 374.98)" fill="#DDD7CA"/>
</g>
</g>
</g>
<g id="Group">
<g id="Group">
<g id="Vector">
<use xlink:href="#path25_fill" transform="translate(747.372 382.178)" fill="#FFB077"/>
</g>
</g>
</g>
<g id="Group">
<g id="Group">
<g id="Vector">
<use xlink:href="#path26_fill" transform="translate(758.58 365.958)" fill="#FFDDBA"/>
</g>
</g>
</g>
<g id="Mask Group">
<mask id="mask1_alpha" mask-type="alpha">
<g id="Vector">
<use xlink:href="#path25_fill" transform="translate(747.372 382.178)" fill="#FFB077"/>
</g>
</mask>
<g id="Ellipse" mask="url(#mask1_alpha)">
<use xlink:href="#path27_fill" transform="translate(760 419)" fill="#FFC296"/>
</g>
<g id="Ellipse" mask="url(#mask1_alpha)">
<use xlink:href="#path27_fill" transform="translate(746 430)" fill="#FFC296"/>
</g>
<g id="Ellipse" mask="url(#mask1_alpha)">
<use xlink:href="#path27_fill" transform="translate(762 389)" fill="#FFC296"/>
</g>
</g>
</g>
<g id="Group">
<g id="Group">
<g id="Vector">
<use xlink:href="#path28_fill" transform="translate(753.358 382.026)" fill="#22164C"/>
</g>
</g>
</g>
</g>
<g id="Group">
<g id="Group">
<g id="Group">
<g id="Vector">
<use xlink:href="#path29_fill" transform="translate(770.152 429.428)" fill="#FFDDBA"/>
</g>
</g>
</g>
<g id="Ellipse">
<use xlink:href="#path27_fill" transform="translate(795 424)" fill="#FFC296"/>
</g>
<g id="Group">
<g id="Vector">
<use xlink:href="#path30_fill" transform="translate(783.857 384.028)" fill="#FFB077"/>
</g>
<g id="Mask Group">
<mask id="mask2_alpha" mask-type="alpha">
<g id="Vector">
<use xlink:href="#path30_fill" transform="translate(783.857 384.028)" fill="#FFB077"/>
</g>
</mask>
<g id="Ellipse" mask="url(#mask2_alpha)">
<use xlink:href="#path27_fill" transform="translate(819 391)" fill="#FFC296"/>
</g>
<g id="Ellipse" mask="url(#mask2_alpha)">
<use xlink:href="#path27_fill" transform="translate(831 415)" fill="#FFC296"/>
</g>
<g id="Ellipse" mask="url(#mask2_alpha)">
<use xlink:href="#path27_fill" transform="translate(793 433)" fill="#FFC296"/>
</g>
<g id="Ellipse" mask="url(#mask2_alpha)">
<use xlink:href="#path27_fill" transform="translate(805 425)" fill="#FFC296"/>
</g>
</g>
</g>
<g id="Group">
<g id="Group">
<g id="Vector">
<use xlink:href="#path31_fill" transform="translate(783.706 394.085)" fill="#22164C"/>
</g>
</g>
</g>
</g>
</g>
</g>
<g id="Ellipse">
<use xlink:href="#path27_fill" transform="translate(769 397)" fill="#FFC296"/>
</g>
<g id="Ellipse">
<use xlink:href="#path27_fill" transform="translate(794 400)" fill="#FFC296"/>
</g>
<g id="Ellipse">
<use xlink:href="#path27_fill" transform="translate(818 403)" fill="#FFC296"/>
</g>
<g id="Ellipse">
<use xlink:href="#path27_fill" transform="translate(806 386)" fill="#FFC296"/>
</g>
<g id="Ellipse">
<use xlink:href="#path27_fill" transform="translate(782 386)" fill="#FFC296"/>
</g>
<g id="Ellipse">
<use xlink:href="#path27_fill" transform="translate(782 408)" fill="#FFC296"/>
</g>
<g id="Ellipse">
<use xlink:href="#path27_fill" transform="translate(779 422)" fill="#FFC296"/>
</g>
<g id="Ellipse">
<use xlink:href="#path27_fill" transform="translate(822 427)" fill="#FFC296"/>
</g>
<g id="Ellipse">
<use xlink:href="#path27_fill" transform="translate(766 429)" fill="#FFC296"/>
</g>
<g id="Ellipse">
<use xlink:href="#path27_fill" transform="translate(805 411)" fill="#FFC296"/>
</g>
<g id="Ellipse">
<use xlink:href="#path27_fill" transform="translate(765 411)" fill="#FFC296"/>
</g>
<g id="Ellipse">
<use xlink:href="#path27_fill" transform="translate(753 406)" fill="#FFC296"/>
</g>
</g>
</g>
<defs>
<path id="path0_fill" d="M 130.098 0L 0 0L 0 190.382L 130.098 190.382L 130.098 0Z"/>
<path id="path1_fill" d="M 118.891 0L 0 0L 0 180.209L 118.891 180.209L 118.891 0Z"/>
<path id="path2_fill" d="M 140 0L 0 0L 0 9.44641L 140 9.44641L 140 0Z"/>
<path id="path3_fill" d="M 130.57 0L 0 0L 0 6.90315L 130.57 6.90315L 130.57 0Z"/>
<path id="path4_fill" d="M 124.041 0L 0 0L 0 41.4189L 124.041 41.4189L 124.041 0Z"/>
<path id="path5_stroke" d="M -2.76714e-07 0.5468L 109.534 0.5468L 109.534 -0.5468L -2.76714e-07 -0.5468L -2.76714e-07 0.5468Z"/>
<path id="path6_stroke" d="M -0.546801 0L -0.546801 80.6578L 0.546799 80.6578L 0.546799 0L -0.546801 0Z"/>
<path id="path7_fill" d="M 1.26943 0L -2.76714e-07 7.81146L 2.53886 7.81146L 1.26943 0Z"/>
<path id="path8_fill" d="M 119 0L 0 0L 0 178L 119 178L 119 0Z"/>
<path id="path9_fill" d="M 4.40314 4.93213C 6.82487 1.74669 10.5331 -0.0735642 14.5441 0.00227958C 23.2472 0.153967 38.7614 0.305654 47.1618 0.457341C 50.643 0.533185 53.8972 2.42928 55.6379 5.46303L 60.3257 20.2627L 53.8972 54.3823L 62.8274 80.4726L 5.38697 80.4726L 9.17092 56.5059L 0.694867 23.3622C -0.970072 16.9913 0.39215 10.2412 4.40314 4.93213Z"/>
<path id="path10_fill" d="M 16.7895 4.5737C 10.7684 -3.15169 0.578947 0.348855 0 4.57371C 1.73684 13.2245 1.04211 30.8883 5.21053 34.751C 10.4211 39.5794 11.5789 38.9759 16.7895 38.9759C 20.9579 38.9759 22 33.3428 22 30.5262C 21.0351 30.9286 19 33 16.7895 29.3191C 14.5789 25.6382 24.3158 14.2304 16.7895 4.5737Z"/>
<path id="path11_fill" d="M 20.9843 25.3776C 20.6059 17.3382 20.833 5.35488 20.833 4.89982C 16.2165 -2.45703 3.65382 0.652568 3.65382 0.652568C 0.323939 4.67229 1.15641 11.8016 1.68616 14.3803C 2.35212 17.7841 3 20.9787 8.0432 20.9787L 8.0432 27.0462C 8.0432 31.0659 5.92419 34.7823 2.44295 36.7542L 0 38.0766L 32.5 38.5766L 27.417 35.6166C 24.0872 33.7205 21.1357 29.2457 20.9843 25.3776Z"/>
<path id="path12_fill" d="M 0 8.72204C 0 8.72204 6.85742 11.2119 11.3574 5.53342C 15.8574 -0.145053 7.89828 2.80938 8.47605 0C 8.47605 0.0758438 2.04333 2.427 0 8.72204Z"/>
<path id="path13_fill" d="M 0.681111 1.36519C 1.05728 1.36519 1.36222 1.05958 1.36222 0.682594C 1.36222 0.305608 1.05728 0 0.681111 0C 0.304943 0 0 0.305608 0 0.682594C 0 1.05958 0.304943 1.36519 0.681111 1.36519Z"/>
<path id="path14_fill" d="M 0.681111 1.36519C 1.05728 1.36519 1.36222 1.05958 1.36222 0.682595C 1.36222 0.305608 1.05728 0 0.681111 0C 0.304943 0 0 0.305608 0 0.682595C 0 1.05958 0.304943 1.36519 0.681111 1.36519Z"/>
<path id="path15_fill" d="M 1.58926 4.09556L 0.151359 3.86803L 5.77385e-07 3.71635L 0.529755 0L 0.832469 0.0758441L 0.378396 3.56466L 1.66494 3.71635L 1.58926 4.09556Z"/>
<path id="path16_fill" d="M 0 2.04778L 0 1.66856C 0.983828 1.59272 1.8163 0.834282 2.11901 2.89321e-07L 2.49741 0.0758444C 2.04333 1.13766 1.05951 1.97194 0 2.04778Z"/>
<path id="path17_fill" d="M 0.0252576 2.27058C -0.353138 2.6498 3.50649 16.15 12.5123 16.8326L 15.0854 15.6191C 15.3124 15.4674 15.0097 15.8466 15.0854 15.6191C 15.6151 13.8747 18.5666 7.42796 11.7555 1.73968C 11.7555 1.73968 5.32279 -2.50758 0.0252576 2.27058Z"/>
<path id="path18_fill" d="M 4.69255 1.56994C 4.61687 1.34241 4.54119 1.11488 4.38983 0.887346C 3.40601 -0.477843 1.89242 -0.0986235 1.05995 0.887346C 0.227485 1.87332 -0.453627 3.9211 0.378842 5.05875C 1.13563 6.04472 2.49786 5.74135 3.33033 4.98291C 4.38983 4.14863 5.07095 2.93513 4.69255 1.56994Z"/>
<path id="path19_fill" d="M 0.00336425 0C -0.0723148 1.59272 1.13855 3.48882 2.65213 3.79219C 2.95485 3.86803 3.33324 3.86803 3.63596 3.79219C 4.01435 3.71635 4.39275 3.41297 4.69547 3.1096C 5.3009 2.427 5.67929 1.13766 5.75497 0.227532L 0.00336425 0Z"/>
<path id="path20_fill" d="M 7.12338 -7.23303e-08C 7.0477 1.59272 5.38276 3.48882 3.41511 3.79219C 3.03671 3.86803 2.58264 3.86803 2.20424 3.79219C 1.67449 3.6405 1.29609 3.41297 0.993376 3.03375C 0.312264 2.27531 -0.0661303 1.06181 0.00954877 0.0758437L 7.12338 -7.23303e-08Z"/>
<path id="path21_fill" d="M 0.378397 0L 0 0L 0 13.7736L 0.378397 13.7736L 0.378397 0Z"/>
<path id="path22_fill" d="M 0.291465 0L 0 0.164375L 0.0729566 11.4108L 0.524565 11.6254L 0.291465 0Z"/>
<path id="path23_fill" d="M 4.77776 0.0403654C 2.73442 -0.187166 0.993808 0.571272 0.84245 1.70893L 0.00997898 9.06578C -0.141379 10.2034 1.44788 11.2652 3.49122 11.4928C 5.53455 11.7203 7.27517 10.9619 7.42652 9.82422L 8.259 2.46737C 8.41035 1.32971 6.82109 0.267897 4.77776 0.0403654Z"/>
<path id="path24_fill" d="M 2.04773 7.41674C 3.17866 7.41674 4.09546 5.75645 4.09546 3.70837C 4.09546 1.66029 3.17866 0 2.04773 0C 0.9168 0 0 1.66029 0 3.70837C 0 5.75645 0.9168 7.41674 2.04773 7.41674Z"/>
<path id="path25_fill" d="M 11.2837 0.075845C 11.2837 0.075845 -1.1277 41.0315 0.0831691 48.3883C 1.29403 55.7452 13.2513 55.5177 14.6135 47.7058C 15.9758 39.8938 17.565 -5.78642e-07 17.565 -5.78642e-07L 11.2837 -5.78642e-07L 11.2837 0.075845Z"/>
<path id="path26_fill" d="M 6.43272 16.2956L 7.87062 10.1523L 8.02198 9.84888C 8.70309 8.10447 12.6384 5.67747 12.6384 5.67747L 16.8008 5.82916C 16.8764 5.82916 16.9521 5.75332 17.0278 5.67747C 17.1035 5.52578 17.0278 5.3741 16.8764 5.29825L 14.5304 4.46397L 19.0711 4.6915C 19.3738 4.6915 19.6766 4.46397 19.7522 4.1606L 19.8279 3.78138C 19.9036 3.40216 19.7522 3.02294 19.3738 2.87125L 14.9088 1.27853L 18.3143 1.80944C 18.5414 1.88528 18.8441 1.65775 18.7684 1.35438C 18.7684 1.20269 18.617 1.051 18.4657 0.975156C 18.4657 0.975156 14.7574 0.216718 13.2438 0.06503C 11.1248 -0.162501 9.7626 0.216717 8.70309 1.051C 6.88679 2.49203 5.75161 3.78138 5.0705 4.84319C 1.74062 9.84888 -5.77385e-07 16.2956 -5.77385e-07 16.2956L 6.43272 16.2956Z"/>
<path id="path27_fill" d="M 4 2C 4 3.10457 3.10457 4 2 4C 0.895431 4 0 3.10457 0 2C 0 0.895431 0.895431 0 2 0C 3.10457 0 4 0.895431 4 2Z"/>
<path id="path28_fill" d="M 1.36222 53.9249C 0.908149 53.9249 0.454074 53.9249 -2.88693e-07 53.8491L 0.0756791 53.4699C 2.57309 53.7733 4.54074 53.2424 6.05432 52.1047C 7.64358 50.8153 8.62741 48.54 8.93013 45.5063C 9.3842 40.3489 11.4275 3.41297 11.5789 0.379218L 5.44889 0.379218L 5.44889 -1.15728e-06L 11.8059 -1.15728e-06L 11.9573 0.151687C 11.9573 0.530906 9.7626 40.1214 9.30852 45.4304C 9.00581 48.54 8.02198 50.8912 6.28136 52.2564C 4.91914 53.394 3.32988 53.9249 1.36222 53.9249Z"/>
<path id="path29_fill" d="M 16.3532 -1.15728e-06C 16.3532 -1.15728e-06 11.0557 0.834284 9.08802 1.28935C 7.12037 1.74441 0.233578 5.68828 0.233578 5.68828C 0.233578 5.68828 -0.523213 6.44672 0.687652 6.7501C 1.89852 7.05347 14.9153 6.29504 14.9153 6.29504L 16.3532 -1.15728e-06Z"/>
<path id="path30_fill" d="M 55.5484 46.1584C 51.3104 32.8857 41.4721 15.8967 36.8557 8.76742C 30.0446 -1.69903 18.8441 0.121225 18.8441 0.121225L 39.5801 39.8634L 1.58926 44.7174L 5.77385e-07 51.7709L 50.1752 52.4534C 51.5374 52.681 52.9753 52.3018 54.0348 51.3916C 55.6241 50.1023 56.1539 47.9787 55.5484 46.1584Z"/>
<path id="path31_fill" d="M 0.378395 41.7141L 0 41.6382L 1.58926 34.5848L 1.74062 34.4331L 39.4288 29.5791C 37.9909 26.8487 24.4443 0.83428 24.0659 0.151685L 24.3687 0C 24.747 0.758438 39.8072 29.6549 39.8072 29.6549L 39.7315 29.9583L 1.89198 34.8123L 0.378395 41.7141Z"/>
</defs>
</svg>

<svg xmlns="http://www.w3.org/2000/svg" xmlns:xlink="http://www.w3.org/1999/xlink" width="140" height="212"><style><![CDATA[.B{fill:#ffc296}.C{fill:#ffb077}.D{fill:#ffddba}.E{mask:url(#C)}.F{fill:#003c5d}.G{fill:#22164c}.H{mask:url(#B)}]]></style><g transform="translate(-719 -236)"><use xlink:href="#D" fill="#e9e3d7" x="724.259" y="250.351"/><use xlink:href="#E" fill="#f7fcff" x="729.844" y="255.438"/><use xlink:href="#F" fill="#736d91" x="719" y="243.084"/><use xlink:href="#G" fill="#e9e3d7" x="723.715" y="236"/><use xlink:href="#F" fill="#bab7cc" x="719" y="438.554"/><use xlink:href="#H" fill="#b9e6ff" x="727.269" y="253.984"/><g fill="#201849"><use xlink:href="#I" x="734.523" y="261.977"/><use xlink:href="#I" x="734.523" y="269.971"/><use xlink:href="#I" x="734.523" y="280.144"/><use xlink:href="#I" x="734.523" y="288.864"/><use xlink:href="#J" x="727.269" y="253.984"/><use xlink:href="#K" x="726" y="332.826"/></g><mask id="A"><use xlink:href="#L" fill="#f7fcff" x="730" y="258"/></mask><g mask="url(#A)"><use xlink:href="#M" x="756.674" y="383.237" class="C"/><use xlink:href="#N" x="787" y="339" class="F"/><use xlink:href="#O" x="771.5" y="345.423" class="D"/><use xlink:href="#P" x="771.143" y="342.967" class="F"/><g class="G"><use xlink:href="#Q" x="773.792" y="355.405"/><use xlink:href="#R" x="780.224" y="355.632"/><use xlink:href="#S" x="775.911" y="355.782"/><use xlink:href="#T" x="778.408" y="360.789"/></g><use xlink:href="#U" x="777.323" y="342.137" class="F"/><use xlink:href="#V" x="788.7" y="355.655" class="D"/><g fill="#b9e6ff"><use xlink:href="#W" x="772" y="345.204"/><use xlink:href="#X" x="778.654" y="345.28"/></g><g fill="#fca664"><use xlink:href="#Y" transform="matrix(.007433 -1 1 .007433 772.035 345.378)"/><use xlink:href="#Z" transform="matrix(.903199 -.429202 .429198 .903201 785.537 345.225)"/></g><use xlink:href="#a" fill="#f1eee7" x="769.165" y="363.935"/><use xlink:href="#b" transform="matrix(.110163 -.993926 .993874 .110637 768.968 374.98)" fill="#ddd7ca"/><use xlink:href="#c" x="747.372" y="382.178" class="C"/><use xlink:href="#d" x="758.58" y="365.958" class="D"/><mask id="B"><use xlink:href="#c" x="747.372" y="382.178" class="C"/></mask><use xlink:href="#e" x="760" y="419" class="H B"/><use xlink:href="#e" x="746" y="430" class="H B"/><use xlink:href="#e" x="762" y="389" class="H B"/><use xlink:href="#f" x="753.358" y="382.026" class="G"/><use xlink:href="#g" x="770.152" y="429.428" class="D"/><use xlink:href="#e" x="795" y="424" class="B"/><use xlink:href="#h" x="783.857" y="384.028" class="C"/><mask id="C"><use xlink:href="#h" x="783.857" y="384.028" class="C"/></mask><use xlink:href="#e" x="819" y="391" class="E B"/><use xlink:href="#e" x="831" y="415" class="E B"/><use xlink:href="#e" x="793" y="433" class="E B"/><use xlink:href="#e" x="805" y="425" class="E B"/><use xlink:href="#i" x="783.706" y="394.085" class="G"/></g><g class="B"><use xlink:href="#e" x="769" y="397"/><use xlink:href="#e" x="794" y="400"/><use xlink:href="#e" x="818" y="403"/><use xlink:href="#e" x="806" y="386"/><use xlink:href="#e" x="782" y="386"/><use xlink:href="#e" x="782" y="408"/><use xlink:href="#e" x="779" y="422"/><use xlink:href="#e" x="822" y="427"/><use xlink:href="#e" x="766" y="429"/><use xlink:href="#e" x="805" y="411"/><use xlink:href="#e" x="765" y="411"/><use xlink:href="#e" x="753" y="406"/></g></g><defs><path id="D" d="M130.098 0H0v190.382h130.098V0z"/><path id="E" d="M118.89 0H0v180.21h118.89V0z"/><path id="F" d="M140 0H0v9.446h140V0z"/><path id="G" d="M130.57 0H0v6.903h130.57V0z"/><path id="H" d="M124.04 0H0v41.42h124.04V0z"/><path id="I" d="M0 .547h109.534V-.547H0V.547z"/><path id="J" d="M-.547 0v80.658H.547V0H-.547z"/><path id="K" d="M1.27 0L0 7.81h2.54L1.27 0z"/><path id="L" d="M119 0H0v178h119V0z"/><path id="M" d="M4.403 4.932A12.36 12.36 0 0 1 14.544.002l32.618.455c3.48.076 6.735 1.972 8.476 5.006l4.688 14.8-6.428 34.12 8.93 26.1H5.387L9.17 56.506.695 23.362C-.97 16.99.392 10.24 4.403 4.932z"/><path id="N" d="M16.8 4.574C10.768-3.152.58.35 0 4.574c1.737 8.65 1.042 26.315 5.21 30.177 5.21 4.828 6.368 4.225 11.58 4.225 4.168 0 5.21-5.633 5.21-8.45-.965.402-3 2.474-5.2-1.207s7.526-15.09 0-24.745z"/><path id="O" d="M20.984 25.378c-.378-8.04-.15-20.023-.15-20.478C16.217-2.457 3.654.653 3.654.653.324 4.672 1.156 11.802 1.686 14.38 2.352 17.784 3 20.98 8.043 20.98v6.067c0 4.02-2.12 7.736-5.6 9.708L0 38.077l32.5.5-5.083-2.96c-3.33-1.896-6.28-6.37-6.433-10.24z"/><path id="P" d="M0 8.722s6.857 2.5 11.357-3.19S7.898 2.81 8.476 0C8.476.076 2.043 2.427 0 8.722z"/><path id="Q" d="M.68 1.365a.68.68 0 0 0 .681-.683A.68.68 0 0 0 .681 0 .68.68 0 0 0 0 .683a.68.68 0 0 0 .681.683z"/><path id="R" d="M.68 1.365a.68.68 0 0 0 .681-.683A.68.68 0 0 0 .681 0 .68.68 0 0 0 0 .683a.68.68 0 0 0 .681.683z"/><path id="S" d="M1.59 4.096L.15 3.868 0 3.716.53 0l.303.076-.454 3.49 1.287.152-.076.38z"/><path id="T" d="M0 2.048v-.38C.984 1.593 1.816.834 2.12 0l.378.076C2.043 1.138 1.06 1.972 0 2.048z"/><path id="U" d="M.025 2.27c-.378.38 3.48 13.88 12.487 14.562l2.573-1.213c.227-.152-.076.228 0 0 .53-1.744 3.48-8.19-3.33-13.88 0 0-6.433-4.247-11.73.53z"/><path id="V" d="M4.693 1.57c-.076-.228-.15-.455-.303-.683-.984-1.365-2.497-.986-3.33 0S-.454 3.92.38 5.06c.757.986 2.12.683 2.95-.076C4.4 4.15 5.07 2.935 4.693 1.57z"/><path id="W" d="M.003 0c-.076 1.593 1.135 3.49 2.65 3.792.303.076.68.076.984 0 .378-.076.757-.38 1.06-.683.605-.683.984-1.972 1.06-2.882L.003 0z"/><path id="X" d="M7.123 0c-.076 1.593-1.74 3.49-3.708 3.792a3.25 3.25 0 0 1-1.211 0c-.53-.152-.908-.38-1.21-.758C.312 2.275-.066 1.062.01.076L7.123 0z"/><path id="Y" d="M.378 0H0v13.774h.378V0z"/><path id="Z" d="M.29 0L0 .164.073 11.41l.452.215L.29 0z"/><path id="a" d="M4.778.04C2.734-.187.994.57.842 1.71L.01 9.066c-.15 1.138 1.438 2.2 3.48 2.427s3.784-.53 3.935-1.67l.832-7.357C8.4 1.33 6.82.268 4.778.04z"/><path id="b" d="M2.048 7.417c1.13 0 2.048-1.66 2.048-3.708S3.18 0 2.048 0 0 1.66 0 3.708.917 7.417 2.048 7.417z"/><path id="c" d="M11.284.076S-1.128 41.032.083 48.388s13.168 7.13 14.53-.682S17.565 0 17.565 0h-6.28v.076z"/><path id="d" d="M6.433 16.296l1.438-6.143.15-.303c.68-1.744 4.616-4.17 4.616-4.17l4.162.152c.076 0 .15-.076.227-.152.076-.152 0-.303-.15-.38l-2.346-.834 4.54.228a.73.73 0 0 0 .681-.531l.076-.38c.076-.38-.076-.758-.454-.9L14.91 1.28l3.406.53c.227.076.53-.152.454-.455 0-.152-.15-.303-.303-.38l-5.222-.9c-2.12-.228-3.48.152-4.54.986-1.816 1.44-2.95 2.73-3.633 3.792C1.74 9.85 0 16.296 0 16.296h6.433z"/><path id="e" d="M4 2a2 2 0 1 1-4 0 2 2 0 1 1 4 0z"/><path id="f" d="M1.362 53.925c-.454 0-.908 0-1.362-.076l.076-.38c2.497.303 4.465-.227 5.98-1.365 1.59-1.29 2.573-3.565 2.876-6.598C9.384 40.35 11.428 3.413 11.58.38H5.45V0h6.357l.15.152c0 .38-2.195 39.97-2.65 45.28-.303 3.1-1.287 5.46-3.027 6.826-1.362 1.138-2.95 1.67-4.92 1.67z"/><path id="g" d="M16.353 0L9.088 1.29c-1.968.455-8.854 4.4-8.854 4.4s-.757.758.454 1.062 14.228-.455 14.228-.455L16.353 0z"/><path id="h" d="M55.548 46.158C51.3 32.886 41.472 15.897 36.856 8.767 30.045-1.7 18.844.12 18.844.12L39.58 39.863 1.59 44.717 0 51.77l50.175.683c1.362.228 2.8-.152 3.86-1.062 1.59-1.29 2.12-3.413 1.514-5.233z"/><path id="i" d="M.378 41.714L0 41.638l1.59-7.053.15-.152L39.43 29.58 24.066.152 24.37 0c.378.758 15.44 29.655 15.44 29.655l-.076.303-37.84 4.854-1.514 6.902z"/></defs></svg>
